X: 2059
T: Âlem-i Elhân İçinde
C: Ahmet Avni Konuk
O: Turkey
F: http://compmusic.upf.edu/node/140
N: maveraunnehr--kupe--devrirevanihindi--alem-i--ahmet_avni_konuk
N: makam= maveraunnehr
N: form= kupe
N: usul= devrirevanihindi = 14/8
M: 14/8
L: 1/16
K: C    
Q: 1/4=102
%%MIDI tuningsystem comma53
d4 d^cd2 dcg2 fee2 d2c2 d6z2  | d4 d2^c2 d2e2 f2fe dc_7/8B2 dcBc c2B2  | 
w:  Â lem_ *  i  *  *  *  *  *  el  |  hân  i çin *  *  *  de   | 
A4 _7/8B2A2 AG^F2 G2A4B2 ^c2Bc d2z2  | \
w:  ey le dik  *  *  *  *  devr_  | 
e2fe d2eg feed d^cd2 cded d6z2  | 
w:  i  *  *  *  *  *  *  *  ma *  *  *  kam    | 
d4 d2d4c2 _B2c4g2 f2_e2 d2c2  | cdc2 _B2c3_ed2 c2c2 B2A2 AGG^F G4  | 
w:  Mâ ve râ *  *  ün  |  neh *  *  ri  de  *  *  *  seyr_  | 
G4 A2_B2 BAG2 z2d2 c2_e2 dedc BAG2  | \
w:  ey le dik  *  *  *  şim  | 
A_BAB AGAc BAAG G^FG2 F2AG G6z2  | 
w:  di  *  *  *  *  *  *  *  *  *  ta *  *  *  mam    | 
|


